WordPressTheme/assets/images/common/404-whale.svg

<svg width="345" height="345" viewBox="0 0 345 345" fill="none" xmlns="http://www.w3.org/2000/svg">
<path d="M308.677 158.009C308.642 156.355 308.188 154.737 307.358 153.307C305.024 149.241 299.89 146.653 292.109 145.615C287.607 145.014 283.374 144.279 279.527 143.428C267.736 140.803 255.653 139.726 243.583 140.224C233.428 140.606 223.301 141.524 213.243 142.976C211.112 143.3 208.638 143.694 205.894 144.134C185.518 147.387 144.065 154.004 118.316 148.903C114.819 142.299 114.216 136.399 116.528 131.348C121.546 120.38 138.539 115.242 144.691 113.71C151.973 124.836 161.23 131.683 172.228 134.074C192.683 138.519 211.524 125.855 212.317 125.315C212.922 124.901 213.378 124.304 213.62 123.612C213.861 122.92 213.875 122.169 213.658 121.468C213.442 120.768 213.007 120.155 212.417 119.72C211.827 119.285 211.114 119.05 210.381 119.049C208.522 118.918 206.729 118.307 205.176 117.276C201.752 115.196 198.951 112.231 197.068 108.693C190.058 95.7779 179.94 90.9631 174.127 89.1995C185.957 60.8659 170.576 42.3465 169.883 41.5378L169.788 41.4363C166.079 37.4404 168.165 30.1964 168.184 30.1355C168.379 29.4979 168.383 28.8174 168.197 28.1772C168.011 27.5371 167.643 26.9649 167.137 26.5306C166.631 26.0963 166.01 25.8187 165.349 25.7316C164.688 25.6445 164.016 25.7517 163.415 26.0402C147.078 33.8605 137.35 48.4297 135.278 68.1708C134.542 75.6647 134.806 83.2234 136.065 90.6475C128.184 90.1186 120.273 90.2884 112.422 91.1549C109.319 91.4593 50.4114 97.7748 24.2665 144.333C12.7597 164.824 11.6841 189.425 21.3867 210.14C29.3014 227.041 42.3861 240.047 60.2946 248.867C55.0604 254.408 50.7631 260.765 47.5712 267.687C36.4916 291.691 13.0712 288.169 12.0869 288.008C11.3612 287.885 10.6152 287.999 9.95903 288.333C9.30289 288.666 8.77135 289.202 8.44285 289.861C8.11435 290.519 8.00628 291.266 8.13459 291.991C8.2629 292.716 8.62079 293.38 9.15546 293.886C20.2888 304.419 34.4916 310.624 48.3038 309.647C74.5116 307.796 95.9635 285.155 103.965 275.412C107.259 271.346 110.918 267.589 114.896 264.189C115.045 264.203 115.195 264.208 115.345 264.204C132.006 263.141 153.373 264.295 153.535 264.305C154.099 264.345 154.651 264.372 155.213 264.407C148.831 268.932 143.556 274.843 139.785 281.698C134.272 291.589 120.147 312.241 98.2933 312.388C102.228 309.416 105.304 305.453 107.207 300.905C109.111 296.356 109.774 291.383 109.128 286.495C109.086 286.041 108.954 285.601 108.739 285.199C108.524 284.797 108.232 284.441 107.879 284.153C107.525 283.866 107.118 283.651 106.681 283.522C106.244 283.393 105.786 283.353 105.333 283.403C104.88 283.453 104.442 283.593 104.043 283.814C103.645 284.035 103.295 284.334 103.013 284.692C102.731 285.05 102.523 285.46 102.402 285.9C102.281 286.339 102.248 286.798 102.305 287.25C102.953 292.372 101.754 297.557 98.9224 301.875C95.8569 306.256 91.3691 309.441 86.2214 310.888C85.4702 311.048 84.7941 311.454 84.3012 312.043C83.8083 312.632 83.527 313.369 83.5023 314.136C83.4777 314.904 83.7111 315.657 84.1652 316.277C84.6193 316.896 85.2679 317.345 86.0072 317.552C89.9983 318.691 94.1266 319.278 98.2771 319.296C123.63 319.296 139.59 296.147 145.782 285.037C149.385 278.43 154.609 272.847 160.964 268.815C163.369 267.332 165.893 266.049 168.509 264.98C168.55 264.963 168.583 264.937 168.623 264.919C169.696 264.932 170.771 264.948 171.832 264.948C241.435 264.948 283.512 236.174 299.116 222.995C302.828 219.856 307.53 218.131 312.391 218.124H320.889C324.452 218.172 327.948 217.15 330.925 215.192C338.492 210.081 337.442 201.839 335.577 197.478C335.707 192.231 334.873 167.582 308.677 158.009ZM98.6596 271.057C92.8616 278.116 72.0662 301.274 47.8726 302.797C38.521 303.386 29.5236 300.684 21.0204 294.755C30.8357 293.593 45.4637 288.636 53.833 270.503C53.9253 270.292 63.2748 249.314 77.9109 245.655C78.7876 245.428 79.5393 244.864 80.0021 244.086C80.465 243.308 80.6015 242.378 80.382 241.499C80.1625 240.621 79.6047 239.865 78.8302 239.396C78.0557 238.926 77.1271 238.782 76.2468 238.995C72.5333 239.974 69.0415 241.655 65.9597 243.946C48.1263 235.82 35.2141 223.481 27.6038 207.229C18.8368 188.515 19.8271 166.259 30.2522 147.695C54.7523 104.063 112.545 98.0397 113.125 97.9849C113.14 97.9849 113.154 97.9778 113.169 97.9757C113.184 97.9737 113.198 97.9757 113.213 97.9757C113.359 97.9585 127.843 96.2446 139.885 97.9666C140.446 98.046 141.018 97.9855 141.55 97.7903C142.082 97.5952 142.557 97.2715 142.934 96.8482C143.311 96.4248 143.577 95.9148 143.708 95.3637C143.84 94.8127 143.834 94.2375 143.689 93.6896C141.814 85.4964 141.285 77.0525 142.124 68.6893C143.737 53.7467 149.99 42.587 160.738 35.4242C160.732 39.3203 162.134 43.0874 164.686 46.0319C165.671 47.2293 178.964 64.1617 166.167 90.1128C165.92 90.6124 165.799 91.1646 165.814 91.7215C165.828 92.2785 165.978 92.8236 166.251 93.3096C166.523 93.7956 166.91 94.208 167.377 94.5111C167.845 94.8142 168.379 94.999 168.934 95.0493C169.07 95.0615 182.613 96.4638 191.038 111.973C193.511 116.596 197.183 120.467 201.67 123.179C201.706 123.199 201.743 123.222 201.779 123.244C195.17 126.263 184.491 129.738 173.643 127.36C163.902 125.229 155.691 118.735 149.242 108.052C148.88 107.453 148.344 106.979 147.705 106.694C147.067 106.408 146.356 106.324 145.669 106.454C144.541 106.665 117.922 111.844 110.294 128.479C107.757 134.022 107.603 140.078 109.819 146.551C106.342 145.35 103.163 143.415 100.498 140.878C98.4911 138.911 96.9676 136.505 96.0478 133.85C95.9094 133.419 95.6872 133.02 95.394 132.675C95.1008 132.331 94.7423 132.047 94.3393 131.842C93.9362 131.636 93.4965 131.513 93.0454 131.478C92.5944 131.443 92.1409 131.497 91.711 131.638C91.2811 131.779 90.8833 132.004 90.5405 132.299C90.1978 132.595 89.9168 132.955 89.7138 133.359C89.5107 133.763 89.3896 134.204 89.3574 134.655C89.3253 135.106 89.3826 135.56 89.5262 135.989C90.7723 139.651 92.8539 142.974 95.6064 145.692C115.178 165.573 174.895 156.036 206.978 150.913C209.701 150.478 212.153 150.086 214.273 149.765C224.087 148.351 233.97 147.456 243.878 147.084C255.351 146.61 266.836 147.634 278.044 150.129C282.08 151.021 286.506 151.792 291.2 152.418C298.369 153.374 300.321 155.13 301.804 157.967C300.191 158.486 298.527 158.826 296.84 158.982C294.107 159.248 291.352 159.184 288.634 158.791C270.702 156.54 252.5 159.431 236.148 167.128C224.767 172.674 214.765 180.686 206.868 190.581C199.414 199.738 178.659 221.065 147.016 221.317C146.116 221.336 145.259 221.708 144.63 222.352C144.002 222.997 143.651 223.863 143.655 224.763C143.658 225.663 144.016 226.526 144.65 227.166C145.284 227.806 146.143 228.17 147.044 228.182H147.072C181.63 227.907 204.125 204.825 212.191 194.915C219.45 185.807 228.647 178.43 239.113 173.321C254.254 166.189 271.111 163.509 287.718 165.595C290.984 166.061 294.294 166.132 297.577 165.807C300.171 165.58 302.719 164.986 305.146 164.043C321.907 169.656 326.847 182.105 328.239 190.243C322.276 186.21 315.287 183.963 308.091 183.766H308.05C269.936 180.444 238.156 209.531 235.702 211.84C207.334 234.676 161.121 240.455 160.66 240.511C160.593 240.52 160.524 240.531 160.457 240.542L136.525 244.878C135.239 245.073 124.862 246.95 110.984 258.498C106.485 262.282 102.358 266.488 98.6596 271.057ZM294.543 217.873C285.34 225.485 275.287 232.005 264.583 237.302C267.39 232.79 269.708 227.992 271.497 222.989C271.81 222.134 271.77 221.19 271.387 220.364C271.004 219.538 270.309 218.898 269.454 218.585C269.031 218.43 268.582 218.36 268.131 218.379C267.681 218.397 267.239 218.505 266.83 218.694C266.004 219.077 265.364 219.773 265.051 220.627C258.151 239.467 249.006 244.184 248.776 244.297C248.746 244.312 248.721 244.333 248.692 244.347C242.394 246.787 235.972 248.894 229.453 250.661C233.604 245.465 236.741 239.536 238.7 233.181C244.698 214.798 251.181 208.568 252.139 207.722C259.577 202.62 267.607 198.441 276.053 195.276C273.967 198.293 272.172 201.502 270.693 204.859C270.495 205.268 270.383 205.713 270.363 206.167C270.343 206.621 270.416 207.074 270.578 207.499C270.739 207.924 270.986 208.311 271.302 208.637C271.619 208.963 271.998 209.221 272.418 209.396C273.259 209.65 274.16 209.619 274.981 209.307C275.802 208.994 276.496 208.419 276.956 207.671C282.717 194.848 289.021 191.881 290.032 191.473C295.827 190.411 301.738 190.125 307.608 190.624C307.733 190.636 307.869 190.639 307.996 190.638H308.088C305.94 194.104 304.328 197.875 303.307 201.823C301.613 207.757 298.619 213.24 294.543 217.873ZM195.05 256.94C197.175 254.473 198.915 251.7 200.213 248.714C200.23 248.676 200.247 248.635 200.262 248.597C200.297 248.51 203.604 240.262 208.278 235.069C218.231 231.206 227.669 226.132 236.381 219.961C234.794 223.584 233.391 227.284 232.176 231.048C226.081 249.732 215.088 253.835 213.94 254.217C207.953 255.355 201.664 256.285 195.05 256.943V256.94ZM124.984 256.947C132.5 252.493 137.391 251.694 137.547 251.67C137.571 251.67 137.592 251.657 137.615 251.654C137.639 251.651 137.672 251.654 137.701 251.646L159.599 247.678C157.398 251.49 154.389 254.774 150.784 257.299C145.748 257.086 135.475 256.74 124.984 256.95V256.947ZM160.6 257.821C163.709 254.493 166.16 250.607 167.825 246.368C177.794 244.63 187.627 242.189 197.251 239.062C196.004 241.312 194.886 243.632 193.903 246.009C190.313 254.141 184.539 257.12 182.944 257.813C175.822 258.141 168.378 258.17 160.598 257.824L160.6 257.821ZM327.084 209.505C325.242 210.694 323.087 211.306 320.894 211.262H312.391C310.497 211.268 308.608 211.472 306.756 211.87C308.074 209.233 309.136 206.475 309.925 203.634C311.853 196.633 314.559 193.152 315.738 191.892C320.895 193.367 325.559 196.207 329.238 200.111C329.845 201.53 331.558 206.485 327.082 209.508L327.084 209.505Z" fill="#0D2936" fill-opacity="0.1"/>
<path d="M92.3466 123.185C92.7704 123.339 93.2203 123.408 93.6707 123.388C94.1211 123.367 94.5631 123.258 94.9713 123.067C95.3795 122.876 95.746 122.606 96.0497 122.273C96.3534 121.939 96.5885 121.55 96.7413 121.125C96.9375 120.584 97.1489 120.048 97.3755 119.517C97.5519 119.102 97.6449 118.657 97.6492 118.206C97.6535 117.755 97.5689 117.308 97.4004 116.89C97.2319 116.472 96.9827 116.092 96.667 115.77C96.3514 115.448 95.9754 115.192 95.5607 115.015C95.1459 114.839 94.7005 114.746 94.2498 114.742C93.7991 114.737 93.352 114.822 92.934 114.99C92.5159 115.159 92.1352 115.408 91.8135 115.724C91.4918 116.039 91.2354 116.415 91.0589 116.83C90.7829 117.479 90.5242 118.134 90.2867 118.791C90.1334 119.214 90.0651 119.664 90.0856 120.114C90.1061 120.565 90.2152 121.006 90.4064 121.415C90.5977 121.823 90.8675 122.189 91.2004 122.493C91.5333 122.797 91.9228 123.032 92.3466 123.185Z" fill="#0D2936" fill-opacity="0.1"/>
<path d="M182.007 191.038C182.726 191.039 183.427 190.812 184.01 190.39L187.293 188.026C188.019 187.489 188.503 186.688 188.642 185.796C188.781 184.904 188.564 183.993 188.036 183.26C187.508 182.528 186.713 182.033 185.823 181.882C184.933 181.732 184.019 181.938 183.28 182.456L179.997 184.821C179.408 185.245 178.968 185.845 178.742 186.536C178.515 187.226 178.513 187.97 178.737 188.661C178.96 189.352 179.397 189.955 179.985 190.382C180.572 190.809 181.28 191.039 182.007 191.038Z" fill="#0D2936" fill-opacity="0.1"/>
<path d="M123.569 188.673C125.465 188.673 127.002 187.136 127.002 185.241C127.002 183.345 125.465 181.808 123.569 181.808C121.674 181.808 120.137 183.345 120.137 185.241C120.137 187.136 121.674 188.673 123.569 188.673Z" fill="#0D2936" fill-opacity="0.1"/>
<path d="M86.5907 214.991C85.9151 215.058 85.2745 215.323 84.75 215.754C84.2254 216.185 83.8404 216.762 83.6435 217.412C83.4467 218.061 83.447 218.755 83.6442 219.404C83.8415 220.054 84.2269 220.63 84.7518 221.061C85.2767 221.491 85.9174 221.757 86.593 221.823C87.2686 221.89 87.9487 221.754 88.5474 221.434C89.146 221.114 89.6364 220.624 89.9563 220.025C90.2763 219.426 90.4116 218.746 90.3451 218.07C90.3009 217.622 90.1687 217.186 89.9561 216.788C89.7435 216.391 89.4546 216.039 89.1059 215.753C88.7573 215.467 88.3557 215.252 87.9241 215.122C87.4925 214.991 87.0394 214.946 86.5907 214.991Z" fill="#0D2936" fill-opacity="0.1"/>
<path d="M68.9266 175.314C68.251 175.381 67.6105 175.646 67.0859 176.077C66.5613 176.508 66.1763 177.085 65.9795 177.735C65.7827 178.384 65.7829 179.078 65.9802 179.727C66.1774 180.377 66.5628 180.953 67.0877 181.384C67.6126 181.814 68.2533 182.08 68.9289 182.146C69.6045 182.213 70.2847 182.077 70.8833 181.757C71.482 181.437 71.9723 180.947 72.2923 180.348C72.6123 179.749 72.7475 179.069 72.681 178.393C72.6369 177.945 72.5048 177.509 72.2923 177.111C72.0797 176.713 71.7908 176.361 71.4421 176.075C71.0934 175.789 70.6918 175.575 70.2602 175.444C69.8285 175.314 69.3754 175.269 68.9266 175.314Z" fill="#0D2936" fill-opacity="0.1"/>
</svg>

<svg width="345" height="345" fill="none" xmlns="http://www.w3.org/2000/svg"><path d="M308.677 158.009a9.78 9.78 0 00-1.319-4.702c-2.334-4.066-7.468-6.654-15.249-7.692-4.502-.601-8.735-1.336-12.582-2.187a139.03 139.03 0 00-35.944-3.204 288.145 288.145 0 00-30.34 2.752c-2.131.324-4.605.718-7.349 1.158-20.376 3.253-61.829 9.87-87.578 4.769-3.497-6.604-4.1-12.504-1.788-17.555 5.018-10.968 22.011-16.106 28.163-17.638 7.282 11.126 16.539 17.973 27.537 20.364 20.455 4.445 39.296-8.219 40.089-8.759a3.438 3.438 0 001.341-3.847 3.428 3.428 0 00-3.277-2.419 10.78 10.78 0 01-5.205-1.773 22.302 22.302 0 01-8.108-8.583c-7.01-12.915-17.128-17.73-22.941-19.493 11.83-28.334-3.551-46.854-4.244-47.662l-.095-.102c-3.709-3.996-1.623-11.24-1.604-11.3a3.427 3.427 0 00-1.047-3.605 3.434 3.434 0 00-3.722-.49c-16.337 7.82-26.065 22.389-28.137 42.13a84.837 84.837 0 00.787 22.476 133.824 133.824 0 00-23.643.508c-3.103.304-62.01 6.62-88.155 53.178-11.507 20.491-12.583 45.092-2.88 65.807 7.914 16.901 21 29.907 38.908 38.727a70.239 70.239 0 00-12.724 18.82c-11.08 24.004-34.5 20.482-35.484 20.321a3.428 3.428 0 00-3.644 1.853 3.43 3.43 0 00.712 4.025c11.134 10.533 25.337 16.738 39.149 15.761 26.208-1.851 47.66-24.492 55.661-34.235a85.877 85.877 0 0110.931-11.223c.149.014.299.019.449.015 16.661-1.063 38.028.091 38.19.101.564.04 1.116.067 1.678.102a51.807 51.807 0 00-15.428 17.291c-5.513 9.891-19.638 30.543-41.492 30.69a27.876 27.876 0 0010.835-25.893 3.448 3.448 0 00-1.249-2.342 3.43 3.43 0 00-5.477 1.747 3.455 3.455 0 00-.097 1.35 21.702 21.702 0 01-3.383 14.625 23.147 23.147 0 01-12.7 9.013 3.436 3.436 0 00-2.72 3.248 3.436 3.436 0 002.505 3.416 45.429 45.429 0 0012.27 1.744c25.353 0 41.313-23.149 47.505-34.259a44.367 44.367 0 0115.182-16.222 51.474 51.474 0 017.545-3.835c.041-.017.074-.043.114-.061 1.073.013 2.148.029 3.209.029 69.603 0 111.68-28.774 127.284-41.953a20.604 20.604 0 0113.275-4.871h8.498a17.828 17.828 0 0010.036-2.932c7.567-5.111 6.517-13.353 4.652-17.714.13-5.247-.704-29.896-26.9-39.469zM98.66 271.057c-5.798 7.059-26.594 30.217-50.787 31.74-9.352.589-18.35-2.113-26.853-8.042 9.816-1.162 24.444-6.119 32.813-24.252.092-.211 9.442-21.189 24.078-24.848a3.435 3.435 0 002.471-4.156 3.432 3.432 0 00-4.135-2.504 30.109 30.109 0 00-10.287 4.951c-17.834-8.126-30.746-20.465-38.356-36.717-8.767-18.714-7.777-40.97 2.648-59.534 24.5-43.632 82.293-49.655 82.873-49.71.015 0 .029-.007.044-.01h.044c.146-.016 14.63-1.73 26.672-.008a3.436 3.436 0 003.804-4.277 77.424 77.424 0 01-1.565-25c1.613-14.943 7.866-26.103 18.614-33.266a16.158 16.158 0 003.948 10.608c.985 1.197 14.278 18.13 1.481 44.08a3.422 3.422 0 00-.353 1.61 3.43 3.43 0 003.12 3.328c.136.011 13.679 1.414 22.104 16.923a29.169 29.169 0 0010.632 11.206c.036.02.073.043.109.065-6.609 3.019-17.288 6.494-28.136 4.116-9.741-2.131-17.952-8.625-24.401-19.308a3.427 3.427 0 00-1.537-1.358 3.423 3.423 0 00-2.036-.24c-1.128.211-27.747 5.39-35.375 22.025-2.537 5.543-2.691 11.599-.475 18.072a25.679 25.679 0 01-9.321-5.673 18.17 18.17 0 01-4.45-7.028 3.437 3.437 0 00-1.709-2.008 3.424 3.424 0 00-2.628-.204 3.438 3.438 0 00-2.354 3.017c-.032.451.026.905.17 1.334a24.918 24.918 0 006.08 9.703c19.571 19.881 79.288 10.344 111.371 5.221 2.723-.435 5.175-.827 7.295-1.148a281.728 281.728 0 0129.605-2.681c11.473-.474 22.958.55 34.166 3.045 4.036.892 8.462 1.663 13.156 2.289 7.169.956 9.121 2.712 10.604 5.549a23.168 23.168 0 01-4.964 1.015 34.194 34.194 0 01-8.206-.191 95.352 95.352 0 00-52.486 8.337 85.23 85.23 0 00-29.28 23.453c-7.454 9.157-28.209 30.484-59.852 30.736a3.436 3.436 0 00-2.366 5.849 3.432 3.432 0 002.394 1.016h.028c34.558-.275 57.053-23.357 65.119-33.267a78.414 78.414 0 0126.922-21.594 88.25 88.25 0 0148.605-7.726c3.266.466 6.576.537 9.859.212a27.523 27.523 0 007.569-1.764c16.761 5.613 21.701 18.062 23.093 26.2a37.809 37.809 0 00-20.148-6.477h-.041c-38.114-3.322-69.894 25.765-72.348 28.074-28.368 22.836-74.581 28.615-75.042 28.671a7.11 7.11 0 00-.203.031l-23.932 4.336c-1.286.195-11.663 2.072-25.541 13.62a92.257 92.257 0 00-12.324 12.559zm195.883-53.184a154.568 154.568 0 01-29.96 19.429 74.73 74.73 0 006.914-14.313 3.434 3.434 0 00-6.446-2.362c-6.9 18.84-16.045 23.557-16.275 23.67-.03.015-.055.036-.084.05a193.07 193.07 0 01-19.239 6.314 53.036 53.036 0 009.247-17.48c5.998-18.383 12.481-24.613 13.439-25.459a111.356 111.356 0 0123.914-12.446 57.893 57.893 0 00-5.36 9.583 3.338 3.338 0 001.725 4.537 3.977 3.977 0 004.538-1.725c5.761-12.823 12.065-15.79 13.076-16.198a66.336 66.336 0 0117.576-.849c.125.012.261.015.388.014h.092a40.467 40.467 0 00-4.781 11.185 41.58 41.58 0 01-8.764 16.05zM195.05 256.94a32.385 32.385 0 005.212-8.343c.035-.087 3.342-8.335 8.016-13.528a129.988 129.988 0 0028.103-15.108 117.885 117.885 0 00-4.205 11.087c-6.095 18.684-17.088 22.787-18.236 23.169a215.049 215.049 0 01-18.89 2.726v-.003zm-70.066.007c7.516-4.454 12.407-5.253 12.563-5.277.024 0 .045-.013.068-.016.024-.003.057 0 .086-.008l21.898-3.968a30.156 30.156 0 01-8.815 9.621c-5.036-.213-15.309-.559-25.8-.349v-.003zm35.616.874a36.12 36.12 0 007.225-11.453 214.37 214.37 0 0029.426-7.306 67.72 67.72 0 00-3.348 6.947c-3.59 8.132-9.364 11.111-10.959 11.804-7.122.328-14.566.357-22.346.011l.002-.003zm166.484-48.316a11.006 11.006 0 01-6.19 1.757h-8.503c-1.894.006-3.783.21-5.635.608a45.89 45.89 0 003.169-8.236c1.928-7.001 4.634-10.482 5.813-11.742a29.818 29.818 0 0113.5 8.219c.607 1.419 2.32 6.374-2.156 9.397l.002-.003z" fill="#0D2936" fill-opacity=".1"/><path d="M92.347 123.185a3.431 3.431 0 002.624-.118 3.424 3.424 0 001.77-1.942 31.18 31.18 0 01.635-1.608 3.433 3.433 0 00-6.317-2.687 38.212 38.212 0 00-.772 1.961 3.427 3.427 0 00.913 3.702c.333.304.723.539 1.147.692zm89.66 67.853a3.408 3.408 0 002.003-.648l3.283-2.364a3.434 3.434 0 00-4.013-5.57l-3.283 2.365a3.425 3.425 0 00-1.255 1.715 3.429 3.429 0 003.265 4.502zm-58.438-2.365a3.433 3.433 0 100-6.866 3.433 3.433 0 000 6.866zM86.59 214.991a3.432 3.432 0 101.334.131 3.415 3.415 0 00-1.333-.131zm-17.663-39.677a3.432 3.432 0 101.333.13c-.431-.13-.885-.175-1.333-.13z" fill="#0D2936" fill-opacity=".1"/></svg>
